X:53
T:The Earl's Chair
M:4/4
L:1/8
R:reel
D:Highland Sun: Celtic Crossover
K:Bm
|:B2dB BAFA|B2dB BAFB|AF~F2 DF~F2|AFdB ADFA|
B2dB BAFA|B2dB BAFB|AFAB defd|1 edef d3A:|2 edef d3f|
|:~e3f ~d3f|edef dBA2|~e3f dcde|fedB ADFA|
~e3f eB~B2|gB~B2 defg|afbf afeg|fedB ADFA:|
